X: 5124
T: Bridgett's
R: reel
M: 4/4
K: Eminor
E3F GA/G/FG|B2AG F2A2|D3E FG/F/EF|A2GF G2B2|
E3F GA/G/FG|B2AG FFDF|dded B2AF|B2AF DEED:|
Ez(e2 e)efe|d2BA B2AF|Dz(d2 d)ded|c2BA F2ED|
Ez(e2 e)efe|d2BA B3d|dBAB d2BA|AFFD DEED:|

